www/assets/icons/view_compact_alt.svg

<svg xmlns="http://www.w3.org/2000/svg" width="24" height="24" viewBox="0 0 24 24" fill='currentColor'><path d="M20 4H4c-1.1 0-2 .9-2 2v12c0 1.1.9 2 2 2h16c1.1 0 2-.9 2-2V6c0-1.1-.9-2-2-2m-8.5 12.5h-4v-4h4zm0-5h-4v-4h4zm5 5h-4v-4h4zm0-5h-4v-4h4z"/></svg>

<svg width="24" height="24" viewBox="0 0 24 24" xmlns="http://www.w3.org/2000/svg" fill='currentColor'><path d="M20 4H4C2.9 4 2 4.9 2 6V18C2 19.1 2.9 20 4 20H20C21.1 20 22 19.1 22 18V6C22 4.9 21.1 4 20 4ZM11.5 16.5H7.5V12.5H11.5V16.5ZM11.5 11.5H7.5V7.5H11.5V11.5ZM16.5 16.5H12.5V12.5H16.5V16.5ZM16.5 11.5H12.5V7.5H16.5V11.5Z"/></svg>
